**kern	**kern	**dynam
*part1	*part1	*part1
*staff2	*staff1	*
*I"Piano	*	*
*clefF4	*clefG2	*
*k[]	*k[]	*
=1	=1	=1
*^	*	*
(4D	2CC_	8A))) 8d 8f#X	>
.	.	4A 4d 4f#	.
4AA)	.	.	.
.	.	8A 8d 8f#	]
=	=	=	=
(4.BB	2CC]	8Fn 8d 8fn	.
.	.	4F 4d 4f	.
16AALL	.	8F 8d 8f	.
16BBJJ)	.	.	.
*v	*v	*	*
=||	=||	=||
*M3/4	*M3/4	*
4CC 4C	4E 4c 4e	.
4r	4r	.
8r	8r	.
*clefG2	*	*
*^	*	*
8a	8f	8dd	p
*v	*v	*	*
=||	=||	=||
*M2/4	*M2/4	*
*^	*	*
(8g#XL	4e	(8bL 8ee	<
8a	.	8cc#X 8ff#X	.
*v	*v	*	*
8f#X	8a 8dd#X	.
8aJ) 8b	8dd#J) 8ff# 8bb	[
=	=	=
!	!LO:TX:b:i:t=cresc.	!
4e 4g#X	4b 4ee 4bb	.
*clefF4	*	*
!	!LO:TX:b:i:t=ten.	!
((4A~ [4e 4f#X	([4cc [4ee 4ff#X [4ccc	.
=	=	=
*^	*	*
4G~)) 4c 4e] 4g	4r	4cc]) 4ee] 4gg 4ccc]	>
*	*	*^	*
4G: 4d: 4fn:	4GG:	(8.aaL	4b 4ffn	.
.	.	16ggJk)	.	]
*	*	*v	*v	*
=	=	=	=
2G: 2c: 2e:	2CC: 2C:	2g: 2cc: 2ee: 2gg:	p
*v	*v	*	*
==	==	==
*-	*-	*-
!!!system-decoration: {(s1,s2)}
